X:22
T:Fantevalsen
C:Vidar Lande
%O:Norway
R:Waltz
N:Adapted by Bill Boyd from a transcription for hardingfele
Z:Bob Wyttenbach, 8/11/02 from NFF 2001 tunebook
M:3/4
L:1/8
K:E %Transposed from D
P:A
uB,2|E2(GE) GG|(GB) (GE) GG|(FA) (FD) FD|E2(GE) B,B,|
E2(GE) GG|(GB) (GE) GG|(FA) (FD) FD|[1E4:|[2E4(GB)||
P:B
ve4e2|d4d2|c2(cd) ec|B4G2|
A2(cA) FA|(AG) (BG) EG|(GF) (AF) DF|[1E4(GB):|[2E4||
